X: 6555
T: Cathcart
R: waltz
M: 3/4
K: Amixolydian
A AB/d/|e z A/ z/g f<d|ez .AA AB/d/|e2 f>g fe|
ed dA AB/d/|e z A/ z/ g f<d|e2 a>g f<a|d2 g>d B<G|A3:|
|:a ag|fd a>g f<d|g2 zB Bc|d3 e d<B|
A2 zA AB/d/|ez A/ z/ g f<d|ez a>g f<a|d2 g>d B<G|A3:|

